!!!OTL: Adam hatte sieben Söhn, S. 48
!!!id: L0038
**kern
*clefG2
*k[f#c#]
*D:
{16d
=1
16d
8.d
16e
8f#
8g
=2
8a
8a
8a}
8r
=3
{8.b
16cc#
8dd
8b
=4
8b
8a
8a}
8r
=5
{8g
8e
8f#
8d
=6
8e
8c#
8d}
8r
=7
{8g
16e
16g
8f#
16d
16f#
=8
8e
8c#
8d}
8r
==
*-
!!!minrhy: 16
!!!meters: 2/4 ]  ZZ[4
!!!cut: Adam hatte sieben Söhn, S. 48
!!!reg: Luxemburg
!!!trd: Die Luxemburger Volkslieder &auml;lterer Zeit, Luxemburg 1904 posth.
!!!rhy1:   X_.XX_X_  X_X_X_0_
!!!rhy2: X_.XX_X_  X_X_X_0_
!!!key: L0038  16  D 2/4 ]  ZZ[4
!!!mod: HEPTATONIK IONISCH]  AMBITUS[9b
!!!kad: 5511
!!!akz: 15_66_42_42_
!!!fot: 'a__b__c__cv_
!!!for: 'a__a__b__c__
!!!fok: '/__^d_\__\__
!! PHRAS[VOLLTAKTIG]
!!!fkt: ??
!!!bem1: Ursprungsmelodie der Echternacher
!!!bem2: Springprozession
!! FONTAINE, Ed.:
!! PR[13] 2K[12] 2G[26] 3K[3] 3G[1] 4A[3] 4Ü[0] 5A[0] 6K[0] 6G[0]
!! 7K[0] 7G[1] 8A[0] MEHR[0] SI[46] ABS[95] SR[38] SP[8]
!! ST[22] 2k[7] 2g[17] 3k[9] 3g[4] 4d[1] 4ü[0] 5d[1] 6k[0] 6g[0]
!! 7k[0] 7g[1] 8d[0] mehr[0] si[41] dm[+5] sr[24] sp[17]
!! 1F[50] 2F[37] 3F[7] 4F[0] LF[0] 2P[7] 3P[0] 4P[0] TRI[0] DF[4] AB[103]
!! TF[0] U3K[0] U3[0] U4[0] U4Ü[0] U5[0] U6K[0] U6[0] U7K[0] U7[2]
!! N1[5] N2K[0] N2[7] N3K[0] N3[6] N4[11] N4Ü[0] N5[14] N6K[0] N6[11]
!!!n7k: 8] N7[5] O1[17] O2K[0] O2[8] O3K[0] O3[2] HÖ[2
!!!RNB: symbol: &auml;      = a umlaut  (UTF-8: Å„)
